components/2.0/icon/icons/icon-position-22px.svg

<svg width="22" height="22" xmlns="http://www.w3.org/2000/svg"><g fill="#3D4752" fill-rule="evenodd"><path d="M11 20l4-4H7l4 4zM7 6h8l-4-4-4 4zM16 7v8l4-4-4-4zM6 15V7l-4 4 4 4z"/><circle cx="11" cy="11" r="2"/></g></svg>

<?xml version="1.0" encoding="UTF-8" standalone="no"?>
<svg width="22px" height="22px" viewBox="0 0 22 22" version="1.1" xmlns="http://www.w3.org/2000/svg" xmlns:xlink="http://www.w3.org/1999/xlink" xmlns:sketch="http://www.bohemiancoding.com/sketch/ns">
    <!-- Generator: Sketch 3.4.4 (17249) - http://www.bohemiancoding.com/sketch -->
    <title>icon-position-22px</title>
    <desc>Created with Sketch.</desc>
    <defs></defs>
    <g id="22px" stroke="none" stroke-width="1" fill="none" fill-rule="evenodd" sketch:type="MSPage">
        <g id="icon-position-22px" sketch:type="MSArtboardGroup" fill="#3D4752">
            <path d="M11,20 L15,16 L7,16 L11,20 Z" id="Shape" sketch:type="MSShapeGroup"></path>
            <path d="M7,6 L15,6 L11,2 L7,6 Z" id="Shape" sketch:type="MSShapeGroup"></path>
            <path d="M16,7 L16,15 L20,11 L16,7 Z" id="Shape" sketch:type="MSShapeGroup"></path>
            <path d="M6,15 L6,7 L2,11 L6,15 Z" id="Shape" sketch:type="MSShapeGroup"></path>
            <circle id="Oval" sketch:type="MSShapeGroup" cx="11" cy="11" r="2"></circle>
        </g>
    </g>
</svg>
